X:1
T:Die, hapless man! - Wilbye
T:#
%%score 1 2 3 4
L:1/8
Q:1/4=120
M:4/4
K:G
V:1 treble nm="Soprano I"
V:2 treble nm="Soprano II"
V:3 treble nm="Alto" snm="A"
V:4 treble-8 nm="Tenor" snm="T"
V:1
"^Die, hapless man!""^John Wilbye\n (1574-1638)"!p! d8 | B4 d4 | G8- | G4 e4- | e4 d4- | %5
w: Die,|hap- less|man,|* die,|* hap\-|
[M:4/4] d4 c4 | B2 c2 c2 B2 | c4 e4 | d8- | d4 d4 | B4 d4 | G4 G4- | G2 c4 B2 | c8 | z4 G4 | %15
w: * less|man, since she de-|nies thee|grace,|* die,|hap- less|man, die,|* hap- less|man,|die,|
 E6 =F2 | G8- | G4 c4 | A2 B2 A2 A2 | B4 z4 |!p! d8- | d4 c2 B2 | A8 | z4!f! G4 | B2 c2 d4- | %25
w: hap- less|man,|* since|she de- nies thee|grace,|Die,|* and des-|pair,|sith|she doth scorn|
 d2 c2 c4- | c4 B2 B2 | c3 c B2 A2 | ^G2 A2 B2 B2 | c4 d4 | e3 e d2 c2 | B4 A4 | A2 B2 A2 A2 | %33
w: * to love|* thee. Fare-|well, most fair, tho'|thou dost fair de-|face, fare-|well, most fair, fare-|well, tho'|thou dost fair de-|
 B4 c4 | d3 d c2 B2 | A4 G4 | G2 A2 G2 G2 | A8 | z4!p! c4 | c4 _B4 | A4 G4 | G4 =F4 | E6 (DC) | %43
w: face, fare-|well, most fair, fare-|well, tho'|thou dost fair de-|face,|Sith|for my|du- teous|love thou|dost re\- *|
 G8 | G2"^cresc." A3 G A2 | G2 (=FE) D2 D2 | E2 G2 A2 =F2 | z2 A2 B2 G2 | d2 d2 d2 c2- | cc B2 A4 | %50
w: prove|me, sith for my|du- teous * love thou|dost re- prove me,|sith for my|du- teous love thou|* dost re- prove|
 B2!f! B2 B3 A | G2 d2 B2 c2 | d2 d2 G4 | G2 d2 d2 c2 | B2 G2 B2 A2 | G2 c2 (c2 B2) | c4 z4 | %57
w: me, Those smi- ling|eyes that some- times|me re- vi-|ved, those smi- ling|eyes that some- times|me re- vi\- *|ved,|
 z2 c3 c B2 | A2 B2 A2 A2 | G2 d2 d2 d2 | B2 c2 d4 | d4 z2 G2- | %62
w: Cloud- ed with|frowns, cloud- ed with|frowns, have me of|life de- pri-|ved, cloud\-|
 G2[Q:1/4=119] F[Q:1/4=117]G[Q:1/4=115] A2[Q:1/4=113] G2 | %63
w: * ed with frowns, have|
[Q:1/4=111] F[Q:1/4=109]D[Q:1/4=107] G3[Q:1/4=105] G[Q:1/4=103] F2 |[Q:1/4=102] G16 |] %65
w: me of life de- pri-|ved.|
V:2
 z8 | z4!p! G4- | G2 c4 B2 | c8 | z4 G4 |[M:4/4] E6 =F2 | G8- | G4 c4 | A2 B2 A2 A2 | B2 G2 G2 F2 | %10
w: |Die,|* hap- less|man,|die,|hap- less|man,|* since|she de- nies thee|grace, die, hap- less|
 G4 z2 d2 | B4 d4 | G8- | G4 e4- | e4 d4- | d4 c4 | B2 c2 c2 B2 | c4 e4 | d8- | d4!p! B4- | %20
w: man, die,|hap- less|man,|* die,|* hap\-|* less|man, since she de-|nies thee|grace,|* Die|
 B4 A2 G2 | A3 G G4- | G4 F4 |!f! G8- | G4 G4 | G8 | G4 d4 | e3 e d2 c2 | B2 A2 A2 ^G2 | A4 z2 A2 | %30
w: * and des-|pair, sith she|* doth|scorn|* to|love|thee. Fare-|well, most fair, tho'|thou dost fair de-|face, tho'|
 B2 c2 (ABcA | Bc d4) ^c2 | d8- | d4 z2 G2 | A2 B2 (GABG | AB c4) B2 | c4!p! c4 | c6 B2 | A4 G4 | %39
w: thou dost fair * * *|* * * de-|face,|* tho'|thou dost fair * * *|* * * de-|face, Sith|for my|du- teous|
 =F8- | F4 E4 | D4 d2 d2- | d2 c2 (c4- | c2 BA B4) | c8 | z4 z2"^cresc." G2- | G2 c4 A2- | %47
w: love|* thou|dost, thou dost|* re- prove||me,|sith|* for my|
 A2 (d3 c) B2 | A2 B2 A2 G2 | d8 | d8 | z8 | z4 z2!f! c2 | c2 B2 A4 | z2 d2 d2 d2 | B2 c2 d4 | %56
w: * du\- * teous|love thou dost re-|prove|me,||Those|smi- ling eyes|that some- times|me re- vi-|
 G4 z4 | z8 | z2 d3 d c2 | B2 G2 B2 A2 | G2 G2 A2 D2 | z2 d3 d c2 | B2 A2 F2 G2 | A2 B2 A4 | B16 |] %65
w: ved,||Cloud- ed with|frowns, have me of|life de- pri- ved,|cloud- ed with|frowns, have me of|life de- pri-|ved.|
V:3
 z8 | z8 | z4!p! G4 | E6 =F2 | G8- | G4 z2 C2 | D2 E2 D2 D2 | E6 E2 | F2 G2 G2 F2 | G4 z4 | %10
w: ||Die,|hap- less|man,|* since|she de- nies thee|grace, since|she de- nies thee|grace,|
 z2 D2 B,3 C | D2 E2 D2 D2 | E4 D4 | C8 | z4 D4 | G,4 A,4 | B,2 G,2 G,2 G,2 | C8 | D8 | G,8 | %20
w: die, hap- less|man, since she de-|nies thee|grace,|die,|hap- less|man, since she de-|nies|thee|grace,|
 z4 z2!p! G,2 | F,4 G,4 | A,6!f! A,2 | B,2 C2 D2 E2 | D2 C2 B,2 B,A, | G,2 G3 G =F2 | E2 (DC) D4 | %27
w: Die|and des-|pair, sith|she doth scorn to|love thee, die and des-|pair, sith she doth|scorn to * love|
 C4 z4 | z4 z2 E2 | C3 C B,2 A,2 | G,2 G2 =F2 E2 | D4 z2 E2 | ^F2 G2 G2 F2 | G4 z4 | D4 G3 G | %35
w: thee.|Fare-|well, most fair, tho'|thou dost fair de-|face, tho'|thou dost fair de-|face,|fare- well, most|
 =F2 E2 D2 D2 | C8- | C8 | C8 | D8 | z4!p! G4 | G4 D4 | E6 =F2 | G8 | z4"^cresc." c4- | c4 G4 | %46
w: fair, tho' thou dost|fair||de-|face,|Sith|for my|du- teous|love,|sith|* for|
 z2 E2 =F4- | F4 G4 | A2 G2 ^F2 G2- | (G2 FE) F4 | G8 | z4 z2!f! G2 | G2 =F2 E2 E2 | D2 G2 ^F2 F2 | %54
w: my du\-|* teous|love thou dost re\-|* * * prove|me,|Those|smi- ling eyes that|some- times me re-|
 G4 D4 | z8 | z2 G2 G2 =F2 | E2 E2 D3 E | ^F2 G2 F4 | G4 z2 D2- | DD E2 D2 G2- | GG F2 G2 E2 | %62
w: vi- ved,||those smi- ling|eyes that some- times|me re- vi-|ved, Cloud\-|* ed with frowns, cloud\-|* ed with frowns, have|
 D3 D C2 B,2 | (A,2 G,2 A,4) | G,16 |] %65
w: me of life de-|pri\- * *|ved.|
V:4
 z8 |!p! d8 | e4 d4 | c8 | z4 d4 |[M:4/4][K:treble-8] G4 A4 | B2 G2 G2 G2 | G4 G4 | d4 d4 | B4 d4 | %10
w: |Die,|hap- less|man,|die,|hap- less|man, since she de-|nies thee|grace, die,|hap- less|
 G8 | z8 | z4 g4 | e6 =f2 | g8- | g4 z2 c2 | d2 e2 d2 d2 | e6 e2 | f2 g2 g2 f2 | g8- | g4 z4 | %21
w: man,||Die,|hap- less|man,|* since|she de- nies thee|grace, since|she de- nies thee|grace,||
 z4!p! d4 | d4 d4 | G2!f! A2 B2 c2 | d2 e2 d4 | e8 | z4 g4 | e2 c2 g2 a2 | e2 =f2 e2 e2 | e4 z4 | %30
w: Die|and des-|pair, sith she doth|scorn to love|thee.|Fare-|well, most fair, tho'|thou dost fair de-|face,|
 z2 e2 a3 a | g2 =f2 e3 e | d4 d4 | d2 d2 a2 g2 | =f3 f e2 d2 | c4 z2 d2 | e2 =f2 f2 e2 | %37
w: fare- well, most|fair, fare- well, most|fair, fare-|well, most fair, tho'|thou dost fair de-|face, tho'|thou dost fair de-|
 =f4!p! f4 | =F4 G4 | A4 _B4 | c6 c2 | d8 | G4 (g4- | g2 =fe) d2"^cresc." d2 | e3 =f e2 f2 | %45
w: face, Sith|for my|du- teous|love thou|dost|re- prove,|* * * me, sith|for my du- teous|
 e2 (dc) c2 B2 | c4 c2 c2 | d4 d4 | d2 d2 d2 G2 | A2 (Bc) d4 | d6!f! B2 | B2 A2 G2 G2 | %52
w: love thou * dost re-|prove me, sith|for my|du- teous love thou|dost re\- * prove|me, Those|smi- ling eyes that|
 A2 B2 c2 c2 | d8 | G4 z4 | z2 g2 g2 =f2 | e2 e2 d2 d2 | c4 z2 G2 | d8 | G4 z4 | z2 c3 c B2 | %61
w: some- times me re-|vi-|ved,|those smi- ling|eyes that some- times|me re-|vi-|ved,|Cloud- ed with|
 A2 A2 G4 | z2 A4 d2- | d2 d2 d4 | d16 |] %65
w: frowns, have me|of life|* de- pri-|ved.|

